!!!OTL: "Mariahilf" DIE KOENIGSTOCHTER HARRT SO LANG
!!!ARE: Europa, Mitteleuropa, Deutschland, Niederrhein
!!!SCT: Z1062
!!!YEM: Copyright 1995, estate of Helmut Schaffrath.
**kern
*ICvox
*Ivox
*M6/8
*k[f#]
*G:
{8d
=1
4g
16f#
16g
4a
16g
16a
=2
4b
8a
4g}
{16a
16cc
=3
4b
8a
4g
16g
16f#
=4
4e
8f#
4g}
{16d
16f#
=5
4g
16f#
16g
4a
16g
16a
=6
4b
8a
4g}
{8cc
=7
4b
8a
4g
8f#
=8
4e
8f#
4g}
{16g
16a
=9
4b
8a
4b
8cc
=10
4dd
8ee
4dd}
{8dd
=11
4ee
8dd
4b
8cc
=12
4dd
8ee
4dd}
{8dd
=13
4cc
8b
4a
16dd
16cc
=14
4.b
4.a
=15
4.g
4r}
==
!!!AGN: Romanze, Ballade
!!!ONB: ESAC (Essen Associative Code) Database: ZUCCAL
!!!AMT: compound duple
!!!AIN: vox
!!!EED: Helmut Schaffrath
!!!EEV: 1.0
*-
